alpha-j-circle-outline.svg

<svg fill="currentColor" viewBox="0 0 24 24"><path d="M13 7h2v8a2 2 0 0 1-2 2h-2a2 2 0 0 1-2-2v-1h2v1h2zm-1-5a10 10 0 0 1 10 10 10 10 0 0 1-10 10A10 10 0 0 1 2 12 10 10 0 0 1 12 2m0 2a8 8 0 0 0-8 8 8 8 0 0 0 8 8 8 8 0 0 0 8-8 8 8 0 0 0-8-8"/></svg>

<svg  viewBox="0 0 24 24" fill="currentColor"><path  d="M13,7H15V15A2,2 0 0,1 13,17H11A2,2 0 0,1 9,15V14H11V15H13V7M12,2A10,10 0 0,1 22,12A10,10 0 0,1 12,22A10,10 0 0,1 2,12A10,10 0 0,1 12,2M12,4A8,8 0 0,0 4,12A8,8 0 0,0 12,20A8,8 0 0,0 20,12A8,8 0 0,0 12,4Z"/></svg>
